X:1
T:Tune played by Gary West
S:http://www.youtube.com/watch?v=-0QorXZGGmw
N:Played on Scottish Smallpipes in D, notated in A
N:Some minor variations not transcribed
Z:Peter Duggan
M:C|
L:1/8
K:Hp
cd|:e2e2 a2a2|efec A2c2|BABc dBcd|efec ABcd|
e2e2 a2a2|efec A2c2|BABc d2B2|1 A4- AAcd:|2 A6 A2|
|:B2AB c2Bc|d2c2 B2AB|c2Bc d2cd|e4 eAce|
a2a2 fgaf|efec A2c2|BABc d2B2|1 A6 A2:|2 A4- AAcd||

